build/flags/CentralAfricanRepublic.svg

<svg xmlns="http://www.w3.org/2000/svg" fill="none" viewBox="0 0 28 28" focusable="false"><defs><filter id="Central_African_Republic_svg__a"><feColorMatrix values="0 0 0 0 1 0 0 0 0 1 0 0 0 0 1 0 0 0 1 0"/></filter></defs><mask id="Central_African_Republic_svg__b" width="28" height="20" x="0" y="4" maskUnits="userSpaceOnUse"><g filter="url(#Central_African_Republic_svg__a)"><rect width="28" height="20" y="4" fill="#FFF" rx="3"/><rect width="27.5" height="19.5" x=".25" y="4.25" stroke="#F5F5F5" stroke-width=".5" rx="2.75"/></g></mask><path fill="none" d="M0 0H28V28H0z"/><rect width="28" height="20" y="4" fill="#FFF" rx="3"/><rect width="27.5" height="19.5" x=".25" y="4.25" stroke="#D6D8DD" stroke-width=".5" rx="2.75"/><g mask="url(#Central_African_Republic_svg__b)"><path fill="#083D96" fill-rule="evenodd" d="M0 9.33333L28 9.33333L28 4L0 4L0 9.33333Z"/><path d="M28 9.33333L28 4L0 4L0 9.33333L28 9.33333Z"/><path fill="#37AE39" fill-rule="evenodd" d="M0 18.6666L28 18.6666L28 13.3333L0 13.3333L0 18.6666Z"/><path d="M28 18.6666L28 13.3333L0 13.3333L0 18.6666L28 18.6666Z"/><path fill="#FFD13F" fill-rule="evenodd" d="M0 24L28 24L28 18.6667L0 18.6667L0 24Z"/><path d="M28 24L28 18.6667L0 18.6667L0 24L28 24Z"/><path fill="#E42346" fill-rule="evenodd" d="M10.6667 24L17.3334 24L17.3334 4L10.6667 4L10.6667 24Z"/><path d="M17.3334 24L17.3334 4L10.6667 4L10.6667 24L17.3334 24Z"/><path fill="#FFD03B" fill-rule="evenodd" d="M4.66669 7.44669L3.49112 8.28472L3.92486 6.90772L2.76457 6.04865L4.20821 6.03565L4.66669 4.66669L5.12516 6.03565L6.5688 6.04865L5.40851 6.90772L5.84226 8.28472L4.66669 7.44669Z"/><path d="M3.49112 8.28472L3.92486 6.90772L2.76457 6.04865L4.20821 6.03565L4.66669 4.66669L5.12516 6.03565L6.5688 6.04865L5.40851 6.90772L5.84226 8.28472L4.66669 7.44669L3.49112 8.28472Z"/></g></svg>

<svg xmlns="http://www.w3.org/2000/svg" fill="none" viewBox="0 0 28 28" focusable="false"><path fill="none" d="M0 0h28v28H0z"/><rect width="28" height="20" y="4" fill="#FFF" rx="3"/><rect width="27.5" height="19.5" x=".25" y="4.25" stroke="#D6D8DD" stroke-width=".5" rx="3"/><mask id="Central_African_Republic_svg__a" width="28" height="20" x="0" y="4" mask-type="alpha" maskUnits="userSpaceOnUse"><rect width="28" height="20" y="4" fill="#FFF" rx="3"/><rect width="27.5" height="19.5" x=".25" y="4.25" stroke="#F5F5F5" stroke-width=".5" rx="3"/></mask><g mask="url(#Central_African_Republic_svg__a)"><path fill="#083D96" fill-rule="evenodd" d="M0 9.33h28V4H0z"/><path d="M28 9.33V4H0v5.33z"/></g><g mask="url(#Central_African_Republic_svg__a)"><path fill="#37AE39" fill-rule="evenodd" d="M0 18.66h28v-5.33H0z"/><path d="M28 18.66v-5.33H0v5.33z"/></g><g mask="url(#Central_African_Republic_svg__a)"><path fill="#FFD13F" fill-rule="evenodd" d="M0 24h28v-5.34H0z"/><path d="M28 24v-5.34H0V24z"/></g><g mask="url(#Central_African_Republic_svg__a)"><path fill="#E42346" fill-rule="evenodd" d="M10.66 24h6.67V4h-6.67z"/><path d="M17.33 24V4h-6.67v20z"/></g><g mask="url(#Central_African_Republic_svg__a)"><path fill="#FFD03B" fill-rule="evenodd" d="m4.66 7.44-1.17.84.43-1.38-1.16-.86 1.44-.01.46-1.37.46 1.37 1.44.01-1.16.86.44 1.38z"/><path d="m3.49 8.28.43-1.38-1.16-.86 1.44-.01.46-1.37.46 1.37 1.44.01-1.16.86.44 1.38-1.18-.84z"/></g></svg>
